_site/images/contact/email.svg

<svg fill="none" height="19" viewBox="0 0 24 19" width="24" xmlns="http://www.w3.org/2000/svg"><path d="m21.8906 0h-19.78122c-1.161661 0-2.10938.946687-2.10938 2.10938v14.06252c0 1.1587.9435 2.1093 2.10938 2.1093h19.78122c1.1588 0 2.1094-.9435 2.1094-2.1093v-14.06252c0-1.158755-.9435-2.10938-2.1094-2.10938zm-.2913 1.40625-9.5546 9.55465-9.63725-9.55465zm-20.19305 14.47445v-13.48684l6.77245 6.71437zm.99436.9943 6.77672-6.7767 2.37457 2.3541c.2748.2726.7184.2717.9922-.0021l2.3153-2.3153 6.74 6.74zm20.19319-.9944-6.7401-6.73998 6.7401-6.74006z" fill="#ffc634"/></svg>

<svg width="24" height="19" viewBox="0 0 24 19" fill="none" xmlns="http://www.w3.org/2000/svg">
<path d="M21.8906 0H2.10938C0.947719 0 0 0.946687 0 2.10938V16.1719C0 17.3306 0.9435 18.2812 2.10938 18.2812H21.8906C23.0494 18.2812 24 17.3377 24 16.1719V2.10938C24 0.950625 23.0565 0 21.8906 0ZM21.5993 1.40625L12.0447 10.9609L2.40745 1.40625H21.5993ZM1.40625 15.8807V2.39386L8.1787 9.10823L1.40625 15.8807ZM2.40061 16.875L9.17733 10.0983L11.5519 12.4524C11.8267 12.725 12.2703 12.7241 12.5441 12.4503L14.8594 10.135L21.5994 16.875H2.40061ZM22.5938 15.8806L15.8537 9.14062L22.5938 2.40056V15.8806Z" fill="#FFC634"/>
</svg>
